X:1
T:Title
%%score { ( 1 4 ) | ( 2 3 ) }
L:1/8
Q:1/4=100
M:4/4
K:D
V:1 treble nm="Grand Piano"
V:4 treble 
V:2 bass 
V:3 bass 
V:1
 [FA]>[=F^G] [^FA]>[GB] [FA]2 [DF]2 | [CE]4 D4 | [Fd]>[Fd] [Ac]>[GB] [FA]2 [DF]2 | [CE]6 z2 | %4
w: J.~M.~Black * * * * *||||
 [EG]>[EG] [DF]>[CE] [DF]2 [FA]2 | B2 d2 G2 B2 | A>^G A>=G [DF]2 [CE]2 | D6 z2 | %8
w: ||||
 [Fd]3 [Fc] [GB]>[FA] [EG]>[DF] | [DF]4 [CE]2 z2 | [EG]3 [^DF] [EG]>[DF] [EG]>[CGB] | [FA]6 z2 | %12
w: ||||
 [Fd]3 [Ac] [GB]>[FA] [GB]>[Ac] | [Bd]2 B2 G2 E2 | A>^G A>=G [DF]2 [CE]2 | D6 z2 |] %16
w: ||||
V:2
 [D,D]>[D,D] [D,D]>[D,D] [D,D]2 [D,A,]2 | [A,,G,]4 [D,F,]4 | %2
 [D,A,]>[D,A,] [D,D]>[D,D] [D,D]2 [D,A,]2 | [A,,A,]6 z2 | %4
 [A,,A,]>[A,,A,] [A,,A,]>[A,,A,] [D,A,]2 [D,D]2 | [G,DG]4 [B,D]2 D2 | %6
 [A,F]>[A,=F] [A,^F]>[K:bass][A,E] [A,,A,]2 [A,,G,]2 | [D,F,]6 z2 | %8
 [D,A,]3 [D,D] [D,D]>[D,D] [D,A,]>[D,A,] | [A,,A,]4 [A,,A,]2 z2 | %10
 [A,,A,]3 [A,,A,] [A,,A,]>[A,,A,] [A,,A,]>A,, | [D,D]6 z2 | [D,D]3 [D,D] [D,D]>[D,D] [D,D]>[D,D] | %13
 z2[K:treble] G2 [G,B,D]4 | [A,F]>[A,=F] [A,^F]>[K:bass][A,E] [A,,A,]2 [A,,G,]2 | [D,F,]6 z2 |] %16
V:3
 x8 | x8 | x8 | x8 | x8 | z4 G,4 | x7/2[K:bass] x9/2 | x8 | x8 | x8 | x8 | x8 | x8 | %13
 G,4[K:treble] z4 | x7/2[K:bass] x9/2 | x8 |] %16
V:4
 x8 | x8 | x8 | x8 | x8 | x8 | x8 | x8 | x8 | x8 | x8 | x8 | x8 | D4 z4 | x8 | x8 |] %16

